public/img/about-bg.svg

<svg width="1898" height="1080" fill="none" xmlns="http://www.w3.org/2000/svg"><path opacity=".2" fill-rule="evenodd" clip-rule="evenodd" d="M1631.44 201.682c33.48 16.24 63.21 38.244 87.42 68.745l-87.42-68.745zm-156.72-41.67c27.13 3.679 53.68 8.239 79.12 14.505l202.8 158.903c10.43 23.483 17.99 48.243 23.02 73.841l-304.94-247.249zm-123.64-13.327c11.7 1.219 23.44 2.377 35.19 3.534 15.06 1.484 30.12 2.968 45.1 4.584l352.79 280.7c2.68 21.666 3.7 43.798 3.27 66.144l-436.35-354.962zm-151.26-22.909c10.99 1.256 21.99 3.005 32.98 5.419 16.38 3.597 33.17 6.569 50.24 9.124l500.29 420.359c-1.52 12.5-3.45 25-5.74 37.459l-577.77-472.361zm-116.69-2.328c7.03-.068 14.07-.181 21.11-.294 13.43-.215 26.87-.43 40.32-.333l628.1 499.589c-3.82 17.221-8.31 34.307-13.36 51.144l-676.17-550.106zM955 107.412c2.748.862 5.508 1.675 8.28 2.436 24.514 6.728 49.13 9.717 73.81 10.928l711.62 583.327a783.633 783.633 0 01-8.14 22.158L955 107.412zM677.433-43.884c33.023 8.522 64.796 25.874 96.447 46.155l955.88 750.597a766.369 766.369 0 01-13.47 29.737 338.36 338.36 0 01-5.59 11.157L677.433-43.884zm-102.946 5.842a240.263 240.263 0 0123.455-7.014 155.846 155.846 0 0123.989-3.92L1701.94 809.455c-9.35 15.79-19.81 30.61-31.2 44.606L574.487-38.043zM501.9 1.512c14.372-10.81 29.541-20.26 45.428-28.076L1637.98 889.824c-7.52 7.362-15.32 14.491-23.34 21.414L501.9 1.512zm-53.816 50.734a367.96 367.96 0 0122.576-23.958l1127.39 896.724c-12.99 10.4-26.5 20.35-40.38 29.959L448.084 52.246zm-42.64 59.537c9.136-15.395 19.189-30.215 30.092-44.22L1535.38 969.927c-7.06 4.597-14.2 9.126-21.39 13.6L405.444 111.783zm-24.06 46.5a457.497 457.497 0 0110.257-21.449l1098.829 861.02c-14.14 8.456-28.44 16.756-42.79 24.996L381.384 158.283zm-23.656 66.249a446.232 446.232 0 0111.601-36.522l1061.431 844.53c-1.8 1.03-3.61 2.06-5.42 3.09-13.81 7.9-27.62 15.79-41.33 23.76L357.728 224.532zm-9.589 90.63c-2.058-18.135-1.735-36.644 1.698-55.669.404-2.238.828-4.478 1.272-6.719L1341.4 1084.83c-2.18 1.35-4.35 2.7-6.52 4.05-7.53 4.7-15.04 9.57-22.54 14.57L348.139 315.162zm51.37 136.07c-13.4-24.174-25.826-48.356-35.237-72.946L1292.75 1116.8c-13.35 9.27-26.68 18.87-40.03 28.58L399.509 451.232zm78.173 155.08c-10.13-30.591-24.851-60.029-40.797-88.973l789.555 647.211c-6.95 5.07-13.91 10.14-20.88 15.17L477.682 606.312zm27.212 130.386c-2.02-13.886-4.097-27.798-6.436-41.683l659.582 517.925c-12.2 8.16-24.45 16.02-36.8 23.42L504.894 736.698zm20.393 116.019c-5.466-21.854-9.529-44.168-13.091-66.715l584.334 464.448c-17.3 9.33-34.78 17.6-52.52 24.39L525.287 852.717zm98.451 194.373c-11.147-17.75-22.017-35.59-32.736-53.169-8.346-13.691-16.601-27.232-24.823-40.468a289.579 289.579 0 01-8.795-15.168l421.31 353.995c-17.244 2.49-34.765 3.26-52.609 1.99l-302.347-247.18zm219.429 226.55c-52.096-22.61-95.947-61.18-134.802-107.22l134.802 107.22z" fill="#fff"/></svg>

<svg width="1898" height="1080" viewBox="0 0 1898 1080" fill="none" xmlns="http://www.w3.org/2000/svg">
<path opacity="0.2" fill-rule="evenodd" clip-rule="evenodd" d="M1631.44 201.682C1664.92 217.922 1694.65 239.926 1718.86 270.427L1631.44 201.682ZM1474.72 160.012C1501.85 163.691 1528.4 168.251 1553.84 174.517L1756.64 333.42C1767.07 356.903 1774.63 381.663 1779.66 407.261L1474.72 160.012ZM1351.08 146.685C1362.78 147.904 1374.52 149.062 1386.27 150.219C1401.33 151.703 1416.39 153.187 1431.37 154.803L1784.16 435.503C1786.84 457.169 1787.86 479.301 1787.43 501.647L1351.08 146.685ZM1199.82 123.776C1210.81 125.032 1221.81 126.781 1232.8 129.195C1249.18 132.792 1265.97 135.764 1283.04 138.319L1783.33 558.678C1781.81 571.178 1779.88 583.678 1777.59 596.137L1199.82 123.776ZM1083.13 121.448C1090.16 121.38 1097.2 121.267 1104.24 121.154C1117.67 120.939 1131.11 120.724 1144.56 120.821L1772.66 620.41C1768.84 637.631 1764.35 654.717 1759.3 671.554L1083.13 121.448ZM955 107.412C957.748 108.274 960.508 109.087 963.28 109.848C987.794 116.576 1012.41 119.565 1037.09 120.776L1748.71 704.103C1746.1 711.559 1743.38 718.948 1740.57 726.261L955 107.412ZM677.433 -43.8836C710.456 -35.3616 742.229 -18.0101 773.88 2.27056L1729.76 752.868C1725.44 762.973 1720.94 772.895 1716.29 782.605C1714.49 786.376 1712.62 790.094 1710.7 793.762L677.433 -43.8836ZM574.487 -38.0425C582.164 -40.7682 589.985 -43.1149 597.942 -45.0559C606.044 -47.0322 614.035 -48.3159 621.931 -48.9763L1701.94 809.455C1692.59 825.245 1682.13 840.065 1670.74 854.061L574.487 -38.0425ZM501.9 1.5122C516.272 -9.29783 531.441 -18.7478 547.328 -26.5645L1637.98 889.824C1630.46 897.186 1622.66 904.315 1614.64 911.238L501.9 1.5122ZM448.084 52.2458C455.292 43.8874 462.823 35.8821 470.66 28.2883L1598.05 925.012C1585.06 935.412 1571.55 945.362 1557.67 954.971L448.084 52.2458ZM405.444 111.783C414.58 96.3875 424.633 81.5676 435.536 67.5621L1535.38 969.928C1528.32 974.525 1521.18 979.054 1513.99 983.528L405.444 111.783ZM381.384 158.283C384.611 151.059 388.032 143.902 391.641 136.834L1490.47 997.854C1476.33 1006.31 1462.03 1014.61 1447.68 1022.85L381.384 158.283ZM357.728 224.532C361.034 212.313 364.91 200.108 369.329 188.01L1430.76 1032.54C1428.96 1033.57 1427.15 1034.6 1425.34 1035.63C1411.53 1043.53 1397.72 1051.42 1384.01 1059.39L357.728 224.532ZM348.139 315.162C346.081 297.027 346.404 278.518 349.837 259.493C350.241 257.255 350.665 255.015 351.109 252.774L1341.4 1084.83C1339.22 1086.18 1337.05 1087.53 1334.88 1088.88C1327.35 1093.58 1319.84 1098.45 1312.34 1103.45L348.139 315.162ZM399.509 451.232C386.109 427.058 373.683 402.876 364.272 378.286L1292.75 1116.8C1279.4 1126.07 1266.07 1135.67 1252.72 1145.38L399.509 451.232ZM477.682 606.312C467.552 575.721 452.831 546.283 436.885 517.339L1226.44 1164.55C1219.49 1169.62 1212.53 1174.69 1205.56 1179.72L477.682 606.312ZM504.894 736.698C502.874 722.812 500.797 708.9 498.458 695.015L1158.04 1212.94C1145.84 1221.1 1133.59 1228.96 1121.24 1236.36L504.894 736.698ZM525.287 852.717C519.821 830.863 515.758 808.549 512.196 786.002L1096.53 1250.45C1079.23 1259.78 1061.75 1268.05 1044.01 1274.84L525.287 852.717ZM623.738 1047.09C612.591 1029.34 601.721 1011.5 591.002 993.921C582.656 980.23 574.401 966.689 566.179 953.453C563.07 948.449 560.143 943.391 557.384 938.285L978.694 1292.28C961.45 1294.77 943.929 1295.54 926.085 1294.27L623.738 1047.09ZM843.167 1273.64C791.071 1251.03 747.22 1212.46 708.365 1166.42L843.167 1273.64Z" fill="white"/>
</svg>
